X:61
T:Lavena
R:Jig
M:6/8
L:1/8
Z:1998 by Norman Bradley <normanb@ix.netcom.com>
K:F
d|d2d1 ^c>=Bc|d2>d2Ad|d3 ^c>=Bc|d3A2B|
B>dc B>cB|A>BA G>FE|F>GA C>AF|E3 D2||

